X:158
T:Glee Oh Nanny. RHu.154
T:O Nanny. RHu.154
S:R.Hughes MS,1823,Whitchurch,Shrops.
A:Whitchurch, Shropshire
Z:Tony Weatherall 2006
M:C
L:1/8
Q:1/2=65
K:G
B>c|dg f>e d2B>c|d>e dB A2dF|G3GG3B|Ae dc B2B>c|!
dg f>e d2B>c|d>e dB A2 d>F|G2G2G2 zB|ce dc B2 zd|!
g>abb af zd|e>fggf2zd|b2a/g/f/e/ a3b/g/|f2a/g/f/e/d2zd|!
e>fgg fd zB|c>dee dB zG|c3B/A/ Bg2d|cBAG d2zd|!
e>fgg fdzB|c>dee dBzG|c3B/A/ Bg2f/e/|e/d/c/B/ d/c/B/A/ G2zd|!
d/^c/d/e/ d=c Bgzd|d/^c/d/e/ d=c Bgzd|d/e/f/g/ ab/c’/ b/g/ ze/c/z|B2A2G2|]

